www/assets/icons/settings_voice.svg

<svg xmlns="http://www.w3.org/2000/svg" width="24" height="24" viewBox="0 0 24 24" fill='currentColor'><path d="M7 23.5h2v-2H7zm5-11c1.66 0 2.99-1.34 2.99-3l.01-6c0-1.66-1.34-3-3-3s-3 1.34-3 3v6c0 1.66 1.34 3 3 3m-1 11h2v-2h-2zm4 0h2v-2h-2zm4-14h-1.7c0 3-2.54 5.1-5.3 5.1s-5.3-2.1-5.3-5.1H5c0 3.41 2.72 6.23 6 6.72v3.28h2v-3.28c3.28-.49 6-3.31 6-6.72"/></svg>

<svg width="24" height="24" viewBox="0 0 24 24" xmlns="http://www.w3.org/2000/svg" fill='currentColor'><path d="M7 23.5H9V21.5H7V23.5ZM12 12.5C13.66 12.5 14.99 11.16 14.99 9.5L15 3.5C15 1.84 13.66 0.5 12 0.5C10.34 0.5 9 1.84 9 3.5V9.5C9 11.16 10.34 12.5 12 12.5ZM11 23.5H13V21.5H11V23.5ZM15 23.5H17V21.5H15V23.5ZM19 9.5H17.3C17.3 12.5 14.76 14.6 12 14.6C9.24 14.6 6.7 12.5 6.7 9.5H5C5 12.91 7.72 15.73 11 16.22V19.5H13V16.22C16.28 15.73 19 12.91 19 9.5Z"/></svg>
